X:413
T:Bellmans polska
R:Polska
O:Gästrikland
S:Efter Gustaf Jernberg
N:Jernberg sa sig ha låten efter en gammal hälsingespelman vid namn Bellman.
N: Klipp på youtube med Mikael och Mia Marin: http://www.youtube.com/watch?v=pmoikA2w-t0
M:3/4
L:1/8
K:D
|:A3/2d/2 dd ed|Af fe/2f/2 gf|A3/2d/2 dd ed|Af fe/2f/2 gf|f3/2a/2 aa ba|
a3/2g/2 fg f2|e3/2f/2 gb ag|f3/2e/2 dc dB|BA/2G/2 FE/2F/2 AA|[1 A,DD4:|[2A,D2<D2E/2C/2|]|:
D2a2a>f|g/2f/2g/2a <ba/2 gf|e3/2f/2 gb ag|f3/2e/2 dc dB|BA/2^G/2 GAA2|
D2a2a>f|=g/2f/2g/2a <ba/2 gf|e3/2f/2 gb ag|f3/2e/2 dc dB|BA/2G/2 FE/2F/2 AA|A,DD4:| 
(:musicend:)

En annan variant:
(:music:)
